docs/images/myservice-chevrons.svg

<svg id="Layer_1" xmlns="http://www.w3.org/2000/svg" viewBox="0 0 491.8 58.2">
  <style>
  </style>
  <linearGradient id="SVGID_1_" gradientUnits="userSpaceOnUse" x1="32.665" y1="-5.699" x2="66.594" y2="25.763">
    <stop offset="0" stop-color="#387cc0"/>
    <stop offset="1" stop-color="#05bab9"/>
  </linearGradient>
  <path d="M46.8.2c.4 0 29.1 24.4 29.1 24.4l-8.6 8.6L30.9 2.5S43.5.2 46.8.2z" fill="url(#SVGID_1_)"/>
  <linearGradient id="SVGID_2_" gradientUnits="userSpaceOnUse" x1="13.492" y1="53.644" x2="46.188" y2="-3.728">
    <stop offset=".011" stop-color="#fcd127"/>
    <stop offset="1" stop-color="#f8961d"/>
  </linearGradient>
  <path d="M29.1 24.5C28.8 24.5 0 48.9 0 48.9l8.6 8.6L45 26.8s-12.6-2.3-15.9-2.3z" fill="url(#SVGID_2_)"/>
  <linearGradient id="SVGID_3_" gradientUnits="userSpaceOnUse" x1="68.985" y1="53.43" x2="35.472" y2="19.917">
    <stop offset="0" stop-color="#e9487b"/>
    <stop offset=".828" stop-color="#f9a12e"/>
  </linearGradient>
  <path d="M42.6 24.3c3.6 0 4.6-.2 7.7 2.3 9.3 7.8 25.6 22.7 25.6 22.7L67 57.2s-23.5-21-33.8-29.3c-2.5-2.1-4.1-3.3-4.1-3.3s5.9-.1 10.2-.2c1.4 0 2.5-.1 3.3-.1z" fill="url(#SVGID_3_)"/>
  <linearGradient id="SVGID_4_" gradientUnits="userSpaceOnUse" x1="36.706" y1="1.831" x2="-2.159" y2="33.293">
    <stop offset="0" stop-color="#8dc641"/>
    <stop offset="1" stop-color="#2ab34b"/>
  </linearGradient>
  <path d="M33.3 0c-3.6 0-4.6-.2-7.7 2.3C16.3 10 0 25 0 25l8.9 7.8s23.5-21 33.8-29.3C45.2 1.4 46.8.2 46.8.2s-6-.1-10.3-.2h-3.2z" fill="url(#SVGID_4_)"/>
</svg>

<?xml version="1.0" encoding="UTF-8" standalone="no"?>
<!DOCTYPE svg PUBLIC "-//W3C//DTD SVG 1.1//EN" "http://www.w3.org/Graphics/SVG/1.1/DTD/svg11.dtd">
<svg width="100%" height="100%" viewBox="0 0 100 77" version="1.1" xmlns="http://www.w3.org/2000/svg" xmlns:xlink="http://www.w3.org/1999/xlink" xml:space="preserve" xmlns:serif="http://www.serif.com/" style="fill-rule:evenodd;clip-rule:evenodd;stroke-linejoin:round;stroke-miterlimit:1.41421;">
    <g transform="matrix(1.31723,0,0,1.31723,0,0.912454)">
        <path d="M46.8,0.2C47.2,0.2 75.9,24.6 75.9,24.6L67.3,33.2L30.9,2.5C30.9,2.5 43.5,0.2 46.8,0.2Z" style="fill:url(#_Linear1);fill-rule:nonzero;"/>
    </g>
    <g transform="matrix(1.31723,0,0,1.31723,0,0.912454)">
        <path d="M29.1,24.5C28.8,24.5 0,48.9 0,48.9L8.6,57.5L45,26.8C45,26.8 32.4,24.5 29.1,24.5Z" style="fill:url(#_Linear2);fill-rule:nonzero;"/>
    </g>
    <g transform="matrix(1.31723,0,0,1.31723,0,0.912454)">
        <path d="M42.6,24.3C46.2,24.3 47.2,24.1 50.3,26.6C59.6,34.4 75.9,49.3 75.9,49.3L67,57.2C67,57.2 43.5,36.2 33.2,27.9C30.7,25.8 29.1,24.6 29.1,24.6C29.1,24.6 35,24.5 39.3,24.4C40.7,24.4 41.8,24.3 42.6,24.3Z" style="fill:url(#_Linear3);fill-rule:nonzero;"/>
    </g>
    <g transform="matrix(1.31723,0,0,1.31723,0,0.912454)">
        <path d="M33.3,0C29.7,0 28.7,-0.2 25.6,2.3C16.3,10 0,25 0,25L8.9,32.8C8.9,32.8 32.4,11.8 42.7,3.5C45.2,1.4 46.8,0.2 46.8,0.2C46.8,0.2 40.8,0.1 36.5,0L33.3,0Z" style="fill:url(#_Linear4);fill-rule:nonzero;"/>
    </g>
    <defs>
        <linearGradient id="_Linear1" x1="0" y1="0" x2="1" y2="0" gradientUnits="userSpaceOnUse" gradientTransform="matrix(33.929,31.462,-31.462,33.929,32.665,-5.699)"><stop offset="0" style="stop-color:rgb(56,124,192);stop-opacity:1"/><stop offset="1" style="stop-color:rgb(5,186,185);stop-opacity:1"/></linearGradient>
        <linearGradient id="_Linear2" x1="0" y1="0" x2="1" y2="0" gradientUnits="userSpaceOnUse" gradientTransform="matrix(32.696,-57.372,57.372,32.696,13.492,53.644)"><stop offset="0" style="stop-color:rgb(252,209,39);stop-opacity:1"/><stop offset="0.01" style="stop-color:rgb(252,209,39);stop-opacity:1"/><stop offset="1" style="stop-color:rgb(248,150,29);stop-opacity:1"/></linearGradient>
        <linearGradient id="_Linear3" x1="0" y1="0" x2="1" y2="0" gradientUnits="userSpaceOnUse" gradientTransform="matrix(-33.513,-33.513,33.513,-33.513,68.985,53.43)"><stop offset="0" style="stop-color:rgb(233,72,123);stop-opacity:1"/><stop offset="0.83" style="stop-color:rgb(249,161,46);stop-opacity:1"/><stop offset="1" style="stop-color:rgb(249,161,46);stop-opacity:1"/></linearGradient>
        <linearGradient id="_Linear4" x1="0" y1="0" x2="1" y2="0" gradientUnits="userSpaceOnUse" gradientTransform="matrix(-38.865,31.462,-31.462,-38.865,36.706,1.831)"><stop offset="0" style="stop-color:rgb(141,198,65);stop-opacity:1"/><stop offset="1" style="stop-color:rgb(42,179,75);stop-opacity:1"/></linearGradient>
    </defs>
</svg>
